setcps (140/60/4)

d1  $ s "omi" <| note "a [~ g] [c b] [g gs]" 
    # octave "<3 4 5 6 7 8>"
    # sustain "{1 2 1}%8"

d1  $ s "[[bd sd], [linnhats*8]]"
    # clouds 0.1 0.5 0.05 0.1
    # cloudsblend 1 0.2 0.33 0.8

hush