setcps (120/60/4)

d1 
   $ fast 2
   $ s "{bd hh 808:4}%8" -- å variere resten er er kult, feks mellom 7 og 8
   # legato (range 0.7 1.2 $ slow 4 sine)
   # gain 0.9

d2 $ off 0 (
      (# speed 1.2)
      . (# gain 0.8)
   )
   $ slow 2
   $ s "{bd cp 808:5}%4" # speed "2 <4 1 -2>"
   # legato (range 0.7 1.2 $ slow 4 sine)

hush